X:97303
T:Miss Milligan's Strathspey
P:Miss L. Montgomery of Skelmorlie's Strathspey
C:Trad. (Aird's 4th Coll.)
R:Strathspey (8x32)
B:RSCDS D73-3
Z:Anselm Lingnau <anselm@strathspey.org>
M:C
L:1/8
K:D
F|"D"D2 D>d "Bm"dc BA|"Em"BA Bd "A7"eEEF|\
  "D"D2 D>d "Bm"dc BA|"G"B/c/d "A7"e/f/g "D"fd dF|
  "D"D2 D>d "Bm"dc BA|"Em"BA Bd "A7"eEEF|\
  "D"D2 D>d "Bm"dc BA|"G"B/c/d "A7"e/f/g "D"fd d||
f/g/|"D"a>A a>f a>d "G"b>a|"D"ad a>f "A7"fe ef/g/|\
     "D"a<d a>f a<d "G"b>a|"D"A>d "A7"{f}ed/e/ "D"fd df/g/|
     "D"a>A a>f ad "G"b>a|"D"ad a>f "A7"fe ef/g/|\
     "Bm"D2 Dd "G"dc BA | "G"B/c/d "A7"e/f/g "D"fd d|]
